html/dist/img/svg/facebook.svg

<svg width="40" height="40" viewBox="0 0 40 40" fill="none" xmlns="http://www.w3.org/2000/svg">
<path d="M20 0C8.95441 0 0 8.95441 0 20C0 31.0456 8.95441 40 20 40C31.0456 40 40 31.0456 40 20C40 8.95441 31.0456 0 20 0ZM25.8761 11.4637C24.9254 11.4637 23.9686 11.4637 23.0183 11.4637C22.4169 11.4248 21.7963 11.8839 21.6864 12.4854C21.6734 13.5265 21.6799 14.5672 21.6799 15.6084C23.0763 15.6149 24.4732 15.6084 25.87 15.6149C25.7665 17.1212 25.5792 18.6214 25.3593 20.1087C24.1244 20.1217 22.8894 20.1087 21.6544 20.1152C21.6414 24.5571 21.6609 28.9925 21.6479 33.4349C19.8114 33.4414 17.9818 33.4284 16.1454 33.4414C16.1129 28.9994 16.1454 24.5575 16.1259 20.1152C15.2336 20.1087 14.3348 20.1217 13.4426 20.1087C13.4491 18.6149 13.4426 17.1216 13.4426 15.6343C14.3348 15.6213 15.2336 15.6343 16.1259 15.6278C16.1518 14.1795 16.0999 12.7247 16.1518 11.2764C16.2488 10.1188 16.6819 8.96171 17.5422 8.16637C18.5833 7.17716 20.0572 6.84093 21.454 6.802C22.9283 6.78902 24.4026 6.79551 25.8765 6.79551C25.8825 8.35375 25.8825 9.9055 25.8761 11.4637Z" fill="#7C7C7D"/>
</svg>

<svg width="40" height="40" viewBox="0 0 40 40" fill="none" xmlns="http://www.w3.org/2000/svg"><path d="M20 0C8.954 0 0 8.954 0 20s8.954 20 20 20 20-8.954 20-20S31.046 0 20 0zm5.876 11.464h-2.858c-.601-.04-1.222.42-1.332 1.021-.013 1.042-.006 2.082-.006 3.123 1.396.007 2.793 0 4.19.007a57.902 57.902 0 01-.51 4.494c-1.236.013-2.47 0-3.706.006-.013 4.442.007 8.878-.006 13.32-1.837.006-3.666-.007-5.503.006-.032-4.442 0-8.884-.02-13.326-.891-.006-1.79.007-2.682-.006.006-1.494 0-2.987 0-4.475.892-.013 1.79 0 2.683-.006.026-1.448-.026-2.903.026-4.352.097-1.157.53-2.314 1.39-3.11 1.041-.989 2.515-1.325 3.912-1.364 1.474-.013 2.949-.006 4.422-.006.006 1.558.006 3.11 0 4.668z" fill="#7C7C7D"/></svg>
